X: 30
T:Beauty In Tears. ST.30
M:3/4
L:1/8
Q:90
C:Sung By Mr Braham
S:Annonymous Staffordshire MS, Early 19thC.
R:Air
O:England
A:Staffordshire
Z:vmp.Tim Willets    
K:Bb
B2|"Mod"B2d2f2|d2B2d2|c2 edcB|(A2c2)F|B2dcBA|(G2e2)c2|B3cA2|B4:|!
B2|B2d2f2|b2f2d2|cdefag|fedcBA|B2d2f2|f2c2B2|A2f2=e2|f6|!
{^fgedfec}B2d2=fe|d2B2d2|cGedcB|(Ac2)zF2|!
B2dcBA|G2"pa"e2ec|B3cA2|B4:|]
